X: 5
T:Apsley House
M:4/4
L:1/8
Q:200
C:Playford
S:Manuscript
O:Playford
A:English
K:G
B2 G2 Bc d2| e2 c2 A2 c2| B2  G2 g2 G2|B4 d4| B2 G2 Bc d2| e2 c2 A2 c2| B2 G2 g2 G2| B4 d4||
f2 a2 bagf | e2 g2 g2 fe| f2 a2 bagf | e4 d4| f2 a2 bagf| e2 g2 g2 fe| f2 a2 bagf| e4 d4||
e2 c2 cdec | d2 B2 BcdB| g2  G2 G2 A2| B4 d4| e2 c2 cdec| d2 B2 BcdB | g2 G2 G2 A2 | B4 d4||

